!! 00000] TT[WS
!!!OTL: Lianbin mang
!!!ARE: Asia, China, Shanxi Ninwu
!! Ethnic Group: Han
!! WI, 281 (1)
!!!SCT: J0336
!!!YEM: Copyright 1995, estate of Helmut Schaffrath.
**kern
*ICvox
*Ivox
*M2/4
*k[f#]
*G:
{8dd
8dd
8ee
16b
16a
=1
8g
16e
16g
4a
=2
8dd
8dd
8ee
16b
16a
=3
8g
16e
16g
4a}
=4
{8dd
8dd
8ee
16dd
16b
=5
8a
8dd
16a
16b
16a
16g
=6
8d
8g
16a
16g
16e
16g
=7
2d}
==
!!!AGN: Xiaodiao. Xinminge, Xuanchuan
!! Neue Text. Politische Liede
!!!ONB: ESAC (Essen Associative Code) Database: CHINA
!!!AMT: simple duple
!!!AIN: vox
!!!EED: Helmut Schaffrath
!!!EEV: 1.0
*-
